X: 9176
T: Dalaigh's
R: polka
M: 2/4
K: Adorian
|:eA BA|eA Ac/d/|eA BA|G2 Gc/d/|
eA BA|eA Ac/d/|ed dB|1 A2 Ac/d/:|2 A2 A2||
|:ed ef|ga gf|ed e/f/g|a2 a2|
ed ef|ga ge|dB GB|1 A2 A2:|2 A2 gf||

